icons/rainbow.svg

<svg width="24" height="24" viewBox="0 0 24 24" fill="none" xmlns="http://www.w3.org/2000/svg">
<path fill-rule="evenodd" clip-rule="evenodd" d="M12 6C7.02944 6 3 10.0294 3 15V19C3 19.5523 2.55228 20 2 20C1.44772 20 1 19.5523 1 19V15C1 8.92487 5.92487 4 12 4C18.0751 4 23 8.92487 23 15V19C23 19.5523 22.5523 20 22 20C21.4477 20 21 19.5523 21 19V15C21 10.0294 16.9706 6 12 6ZM12 10C9.23858 10 7 12.2386 7 15V19C7 19.5523 6.55228 20 6 20C5.44772 20 5 19.5523 5 19V15C5 11.134 8.13401 8 12 8C15.866 8 19 11.134 19 15V19C19 19.5523 18.5523 20 18 20C17.4477 20 17 19.5523 17 19V15C17 12.2386 14.7614 10 12 10ZM12 14C11.4477 14 11 14.4477 11 15V19C11 19.5523 10.5523 20 10 20C9.44772 20 9 19.5523 9 19V15C9 13.3431 10.3431 12 12 12C13.6569 12 15 13.3431 15 15V19C15 19.5523 14.5523 20 14 20C13.4477 20 13 19.5523 13 19V15C13 14.4477 12.5523 14 12 14Z" fill="black"/>
</svg>

<svg
  width="24"
  height="24"
  viewBox="0 0 24 24"
  xmlns="http://www.w3.org/2000/svg"
>
  <path
    fill-rule="evenodd"
    clip-rule="evenodd"
    d="M12 6a9 9 0 0 0-9 9v4a1 1 0 1 1-2 0v-4C1 8.925 5.925 4 12 4s11 4.925 11 11v4a1 1 0 1 1-2 0v-4a9 9 0 0 0-9-9zm0 4a5 5 0 0 0-5 5v4a1 1 0 1 1-2 0v-4a7 7 0 1 1 14 0v4a1 1 0 1 1-2 0v-4a5 5 0 0 0-5-5zm0 4a1 1 0 0 0-1 1v4a1 1 0 1 1-2 0v-4a3 3 0 1 1 6 0v4a1 1 0 1 1-2 0v-4a1 1 0 0 0-1-1z"
  />
</svg>
